X:102
T: Die erzwungene Ehe
N: Q0050
O: Mitteleuropa, Deutschland / Frankreich, Lothringen, Garburg
R: Ballade, Hochzeit, Tod
M: 3/8
L: 1/16
K: E
B2 | =G2F2E2 | =D2E2D2 | =G2B2A2 | B4
B2 | B2A2=GF | E2E2=D2 | FA=G2F2 | E4

